bernoullicharts/0_5_x_1_0_5_x__bits.svg

<?xml version="1.0" encoding="utf-8" standalone="no"?>
<!DOCTYPE svg PUBLIC "-//W3C//DTD SVG 1.1//EN"
  "http://www.w3.org/Graphics/SVG/1.1/DTD/svg11.dtd">
<!-- Created with matplotlib (https://matplotlib.org/) -->
<svg height="345.6pt" version="1.1" viewBox="0 0 460.8 345.6" width="460.8pt" xmlns="http://www.w3.org/2000/svg" xmlns:xlink="http://www.w3.org/1999/xlink">
 <defs>
  <style type="text/css">
*{stroke-linecap:butt;stroke-linejoin:round;}
  </style>
 </defs>
 <g id="figure_1">
  <g id="patch_1">
   <path d="M 0 345.6 
L 460.8 345.6 
L 460.8 0 
L 0 0 
z
" style="fill:#ffffff;"/>
  </g>
  <g id="axes_1">
   <g id="patch_2">
    <path d="M 57.6 307.584 
L 414.72 307.584 
L 414.72 41.472 
L 57.6 41.472 
z
" style="fill:#ffffff;"/>
   </g>
   <g id="matplotlib.axis_1">
    <g id="xtick_1">
     <g id="line2d_1">
      <defs>
       <path d="M 0 0 
L 0 3.5 
" id="m68ebc6e436" style="stroke:#000000;stroke-width:0.8;"/>
      </defs>
      <g>
       <use style="stroke:#000000;stroke-width:0.8;" x="73.800255" xlink:href="#m68ebc6e436" y="307.584"/>
      </g>
     </g>
     <g id="text_1">
      <text style="font-family:DejaVu Sans;font-size:10px;font-style:normal;font-weight:normal;text-anchor:middle;" transform="rotate(-0, 73.800255, 322.182437)" x="73.800255" y="322.182437">0.0</text>
     </g>
    </g>
    <g id="xtick_2">
     <g id="line2d_2">
      <g>
       <use style="stroke:#000000;stroke-width:0.8;" x="138.744153" xlink:href="#m68ebc6e436" y="307.584"/>
      </g>
     </g>
     <g id="text_2">
      <text style="font-family:DejaVu Sans;font-size:10px;font-style:normal;font-weight:normal;text-anchor:middle;" transform="rotate(-0, 138.744153, 322.182437)" x="138.744153" y="322.182437">0.2</text>
     </g>
    </g>
    <g id="xtick_3">
     <g id="line2d_3">
      <g>
       <use style="stroke:#000000;stroke-width:0.8;" x="203.688051" xlink:href="#m68ebc6e436" y="307.584"/>
      </g>
     </g>
     <g id="text_3">
      <text style="font-family:DejaVu Sans;font-size:10px;font-style:normal;font-weight:normal;text-anchor:middle;" transform="rotate(-0, 203.688051, 322.182437)" x="203.688051" y="322.182437">0.4</text>
     </g>
    </g>
    <g id="xtick_4">
     <g id="line2d_4">
      <g>
       <use style="stroke:#000000;stroke-width:0.8;" x="268.631949" xlink:href="#m68ebc6e436" y="307.584"/>
      </g>
     </g>
     <g id="text_4">
      <text style="font-family:DejaVu Sans;font-size:10px;font-style:normal;font-weight:normal;text-anchor:middle;" transform="rotate(-0, 268.631949, 322.182437)" x="268.631949" y="322.182437">0.6</text>
     </g>
    </g>
    <g id="xtick_5">
     <g id="line2d_5">
      <g>
       <use style="stroke:#000000;stroke-width:0.8;" x="333.575847" xlink:href="#m68ebc6e436" y="307.584"/>
      </g>
     </g>
     <g id="text_5">
      <text style="font-family:DejaVu Sans;font-size:10px;font-style:normal;font-weight:normal;text-anchor:middle;" transform="rotate(-0, 333.575847, 322.182437)" x="333.575847" y="322.182437">0.8</text>
     </g>
    </g>
    <g id="xtick_6">
     <g id="line2d_6">
      <g>
       <use style="stroke:#000000;stroke-width:0.8;" x="398.519745" xlink:href="#m68ebc6e436" y="307.584"/>
      </g>
     </g>
     <g id="text_6">
      <text style="font-family:DejaVu Sans;font-size:10px;font-style:normal;font-weight:normal;text-anchor:middle;" transform="rotate(-0, 398.519745, 322.182437)" x="398.519745" y="322.182437">1.0</text>
     </g>
    </g>
    <g id="text_7">
     <text style="font-family:DejaVu Sans;font-size:10px;font-style:normal;font-weight:normal;text-anchor:middle;" transform="rotate(-0, 236.16, 335.860562)" x="236.16" y="335.860562">Probability</text>
    </g>
   </g>
   <g id="matplotlib.axis_2">
    <g id="ytick_1">
     <g id="line2d_7">
      <defs>
       <path d="M 0 0 
L -3.5 0 
" id="mf6f3e0effa" style="stroke:#000000;stroke-width:0.8;"/>
      </defs>
      <g>
       <use style="stroke:#000000;stroke-width:0.8;" x="57.6" xlink:href="#mf6f3e0effa" y="292.335014"/>
      </g>
     </g>
     <g id="text_8">
      <text style="font-family:DejaVu Sans;font-size:10px;font-style:normal;font-weight:normal;text-anchor:end;" transform="rotate(-0, 50.6, 296.134233)" x="50.6" y="296.134233">2.50</text>
     </g>
    </g>
    <g id="ytick_2">
     <g id="line2d_8">
      <g>
       <use style="stroke:#000000;stroke-width:0.8;" x="57.6" xlink:href="#mf6f3e0effa" y="256.50563"/>
      </g>
     </g>
     <g id="text_9">
      <text style="font-family:DejaVu Sans;font-size:10px;font-style:normal;font-weight:normal;text-anchor:end;" transform="rotate(-0, 50.6, 260.304849)" x="50.6" y="260.304849">2.75</text>
     </g>
    </g>
    <g id="ytick_3">
     <g id="line2d_9">
      <g>
       <use style="stroke:#000000;stroke-width:0.8;" x="57.6" xlink:href="#mf6f3e0effa" y="220.676246"/>
      </g>
     </g>
     <g id="text_10">
      <text style="font-family:DejaVu Sans;font-size:10px;font-style:normal;font-weight:normal;text-anchor:end;" transform="rotate(-0, 50.6, 224.475465)" x="50.6" y="224.475465">3.00</text>
     </g>
    </g>
    <g id="ytick_4">
     <g id="line2d_10">
      <g>
       <use style="stroke:#000000;stroke-width:0.8;" x="57.6" xlink:href="#mf6f3e0effa" y="184.846863"/>
      </g>
     </g>
     <g id="text_11">
      <text style="font-family:DejaVu Sans;font-size:10px;font-style:normal;font-weight:normal;text-anchor:end;" transform="rotate(-0, 50.6, 188.646081)" x="50.6" y="188.646081">3.25</text>
     </g>
    </g>
    <g id="ytick_5">
     <g id="line2d_11">
      <g>
       <use style="stroke:#000000;stroke-width:0.8;" x="57.6" xlink:href="#mf6f3e0effa" y="149.017479"/>
      </g>
     </g>
     <g id="text_12">
      <text style="font-family:DejaVu Sans;font-size:10px;font-style:normal;font-weight:normal;text-anchor:end;" transform="rotate(-0, 50.6, 152.816697)" x="50.6" y="152.816697">3.50</text>
     </g>
    </g>
    <g id="ytick_6">
     <g id="line2d_12">
      <g>
       <use style="stroke:#000000;stroke-width:0.8;" x="57.6" xlink:href="#mf6f3e0effa" y="113.188095"/>
      </g>
     </g>
     <g id="text_13">
      <text style="font-family:DejaVu Sans;font-size:10px;font-style:normal;font-weight:normal;text-anchor:end;" transform="rotate(-0, 50.6, 116.987314)" x="50.6" y="116.987314">3.75</text>
     </g>
    </g>
    <g id="ytick_7">
     <g id="line2d_13">
      <g>
       <use style="stroke:#000000;stroke-width:0.8;" x="57.6" xlink:href="#mf6f3e0effa" y="77.358711"/>
      </g>
     </g>
     <g id="text_14">
      <text style="font-family:DejaVu Sans;font-size:10px;font-style:normal;font-weight:normal;text-anchor:end;" transform="rotate(-0, 50.6, 81.15793)" x="50.6" y="81.15793">4.00</text>
     </g>
    </g>
    <g id="ytick_8">
     <g id="line2d_14">
      <g>
       <use style="stroke:#000000;stroke-width:0.8;" x="57.6" xlink:href="#mf6f3e0effa" y="41.529327"/>
      </g>
     </g>
     <g id="text_15">
      <text style="font-family:DejaVu Sans;font-size:10px;font-style:normal;font-weight:normal;text-anchor:end;" transform="rotate(-0, 50.6, 45.328546)" x="50.6" y="45.328546">4.25</text>
     </g>
    </g>
    <g id="text_16">
     <text style="font-family:DejaVu Sans;font-size:10px;font-style:normal;font-weight:normal;text-anchor:middle;" transform="rotate(-90, 22.254687, 174.528)" x="22.254687" y="174.528">Average Bits Consumed Per Call</text>
    </g>
   </g>
   <g id="line2d_15">
    <path clip-path="url(#p64175ce7d8)" d="M 73.832727 70.766104 
L 77.112066 90.830559 
L 80.391405 75.06563 
L 83.670744 53.568 
L 86.950083 126.086673 
L 90.229421 85.671128 
L 93.50876 101.436057 
L 96.788099 85.384493 
L 100.067438 122.073782 
L 103.346777 111.754919 
L 106.626116 104.015773 
L 109.905455 120.640607 
L 113.184793 125.800038 
L 116.464132 139.845156 
L 119.743471 128.379754 
L 123.02281 162.489327 
L 126.302149 96.563261 
L 129.581488 104.875678 
L 132.860826 95.703355 
L 136.140165 96.563261 
L 139.419504 78.791886 
L 142.698843 179.687431 
L 145.978182 127.233213 
L 149.257521 127.519848 
L 152.53686 64.173498 
L 155.816198 108.028664 
L 159.095537 174.528 
L 162.374876 170.515109 
L 165.654215 131.246104 
L 168.933554 141.564967 
L 172.212893 161.342787 
L 175.492231 188.859754 
L 178.77157 157.329896 
L 182.050909 138.985251 
L 185.330248 176.24781 
L 188.609587 161.056152 
L 191.888926 129.526294 
L 195.168264 147.297668 
L 198.447603 141.851602 
L 201.726942 173.668095 
L 205.006281 148.157573 
L 208.28562 175.10127 
L 211.564959 176.534445 
L 214.844298 168.222028 
L 218.123636 142.711507 
L 221.402975 183.413687 
L 224.682314 180.547336 
L 227.961653 180.260701 
L 231.240992 200.898427 
L 234.520331 173.95473 
L 237.799669 222.969327 
L 241.079008 206.344493 
L 244.358347 173.094825 
L 247.637686 185.420133 
L 250.917025 216.37672 
L 254.196364 206.631128 
L 257.475702 197.745441 
L 260.755041 195.165725 
L 264.03438 179.687431 
L 267.313719 239.880796 
L 270.593058 241.027336 
L 273.872397 194.30582 
L 277.151736 219.243071 
L 280.431074 229.848569 
L 283.710413 255.93236 
L 286.989752 228.988664 
L 290.269091 230.995109 
L 293.54843 220.102976 
L 296.827769 244.753592 
L 300.107107 262.811602 
L 303.386446 220.676246 
L 306.665785 208.637573 
L 309.945124 261.665062 
L 313.224463 228.988664 
L 316.503802 210.644019 
L 319.78314 258.225441 
L 323.062479 238.734256 
L 326.341818 218.956436 
L 329.621157 223.255962 
L 332.900496 204.624682 
L 336.179835 250.486294 
L 339.459174 247.906578 
L 342.738512 245.040227 
L 346.017851 243.607052 
L 349.29719 267.971033 
L 352.576529 280.582976 
L 355.855868 237.301081 
L 359.135207 253.925915 
L 362.414545 253.352645 
L 365.693884 253.63928 
L 368.973223 263.098237 
L 372.252562 259.658616 
L 375.531901 253.63928 
L 378.81124 248.193213 
L 382.090579 268.544303 
L 385.369917 252.779374 
L 388.649256 256.50563 
L 391.928595 273.99037 
L 395.207934 280.582976 
L 398.487273 295.488 
" style="fill:none;stroke:#1f77b4;stroke-linecap:square;stroke-width:1.5;"/>
   </g>
   <g id="patch_3">
    <path d="M 57.6 307.584 
L 57.6 41.472 
" style="fill:none;stroke:#000000;stroke-linecap:square;stroke-linejoin:miter;stroke-width:0.8;"/>
   </g>
   <g id="patch_4">
    <path d="M 414.72 307.584 
L 414.72 41.472 
" style="fill:none;stroke:#000000;stroke-linecap:square;stroke-linejoin:miter;stroke-width:0.8;"/>
   </g>
   <g id="patch_5">
    <path d="M 57.6 307.584 
L 414.72 307.584 
" style="fill:none;stroke:#000000;stroke-linecap:square;stroke-linejoin:miter;stroke-width:0.8;"/>
   </g>
   <g id="patch_6">
    <path d="M 57.6 41.472 
L 414.72 41.472 
" style="fill:none;stroke:#000000;stroke-linecap:square;stroke-linejoin:miter;stroke-width:0.8;"/>
   </g>
   <g id="text_17">
    <text style="font-family:DejaVu Sans;font-size:12px;font-style:normal;font-weight:normal;text-anchor:middle;" transform="rotate(-0, 236.16, 35.472)" x="236.16" y="35.472">Avg. Bits Consumed by 0.5*x/(1+0.5*x) Algorithm</text>
   </g>
   <g id="legend_1">
    <g id="patch_7">
     <path d="M 296.162188 64.150125 
L 407.72 64.150125 
Q 409.72 64.150125 409.72 62.150125 
L 409.72 48.472 
Q 409.72 46.472 407.72 46.472 
L 296.162188 46.472 
Q 294.162188 46.472 294.162188 48.472 
L 294.162188 62.150125 
Q 294.162188 64.150125 296.162188 64.150125 
z
" style="fill:#ffffff;opacity:0.8;stroke:#cccccc;stroke-linejoin:miter;"/>
    </g>
    <g id="line2d_16">
     <path d="M 298.162188 54.570438 
L 318.162188 54.570438 
" style="fill:none;stroke:#1f77b4;stroke-linecap:square;stroke-width:1.5;"/>
    </g>
    <g id="line2d_17"/>
    <g id="text_18">
     <text style="font-family:DejaVu Sans;font-size:10px;font-style:normal;font-weight:normal;text-anchor:start;" transform="rotate(-0, 326.162188, 58.070438)" x="326.162188" y="58.070438">0.5*x/(1+0.5*x)</text>
    </g>
   </g>
  </g>
 </g>
 <defs>
  <clipPath id="p64175ce7d8">
   <rect height="266.112" width="357.12" x="57.6" y="41.472"/>
  </clipPath>
 </defs>
</svg>

<svg height="460.8" viewBox="0 0 460.8 345.6" width="614.4" xmlns="http://www.w3.org/2000/svg" xmlns:xlink="http://www.w3.org/1999/xlink"><defs><style>*{stroke-linecap:butt;stroke-linejoin:round}</style></defs><g id="figure_1"><path d="M0 345.6h460.8V0H0z" fill="#fff" id="patch_1"/><g id="axes_1"><path d="M57.6 307.584h357.12V41.472H57.6z" fill="#fff" id="patch_2"/><g id="matplotlib.axis_1"><g id="xtick_1"><g id="line2d_1"><defs><path d="M0 0v3.5" id="m68ebc6e436" stroke="#000" stroke-width=".8"/></defs><use x="73.8" xlink:href="#m68ebc6e436" y="307.584" stroke="#000" stroke-width=".8"/></g><text x="73.8" y="322.182" font-family="DejaVu Sans" font-size="10" font-weight="400" text-anchor="middle" id="text_1">0.0</text></g><g id="xtick_2"><use x="138.744" xlink:href="#m68ebc6e436" y="307.584" stroke="#000" stroke-width=".8" id="line2d_2"/><text x="138.744" y="322.182" font-family="DejaVu Sans" font-size="10" font-weight="400" text-anchor="middle" id="text_2">0.2</text></g><g id="xtick_3"><use x="203.688" xlink:href="#m68ebc6e436" y="307.584" stroke="#000" stroke-width=".8" id="line2d_3"/><text x="203.688" y="322.182" font-family="DejaVu Sans" font-size="10" font-weight="400" text-anchor="middle" id="text_3">0.4</text></g><g id="xtick_4"><use x="268.632" xlink:href="#m68ebc6e436" y="307.584" stroke="#000" stroke-width=".8" id="line2d_4"/><text x="268.632" y="322.182" font-family="DejaVu Sans" font-size="10" font-weight="400" text-anchor="middle" id="text_4">0.6</text></g><g id="xtick_5"><use x="333.576" xlink:href="#m68ebc6e436" y="307.584" stroke="#000" stroke-width=".8" id="line2d_5"/><text x="333.576" y="322.182" font-family="DejaVu Sans" font-size="10" font-weight="400" text-anchor="middle" id="text_5">0.8</text></g><g id="xtick_6"><use x="398.52" xlink:href="#m68ebc6e436" y="307.584" stroke="#000" stroke-width=".8" id="line2d_6"/><text x="398.52" y="322.182" font-family="DejaVu Sans" font-size="10" font-weight="400" text-anchor="middle" id="text_6">1.0</text></g><text x="236.16" y="335.861" font-family="DejaVu Sans" font-size="10" font-weight="400" text-anchor="middle" id="text_7">Probability</text></g><g id="matplotlib.axis_2"><g id="ytick_1"><g id="line2d_7"><defs><path d="M0 0h-3.5" id="mf6f3e0effa" stroke="#000" stroke-width=".8"/></defs><use x="57.6" xlink:href="#mf6f3e0effa" y="292.335" stroke="#000" stroke-width=".8"/></g><text x="50.6" y="296.134" font-family="DejaVu Sans" font-size="10" font-weight="400" text-anchor="end" id="text_8">2.50</text></g><g id="ytick_2"><use x="57.6" xlink:href="#mf6f3e0effa" y="256.506" stroke="#000" stroke-width=".8" id="line2d_8"/><text x="50.6" y="260.305" font-family="DejaVu Sans" font-size="10" font-weight="400" text-anchor="end" id="text_9">2.75</text></g><g id="ytick_3"><use x="57.6" xlink:href="#mf6f3e0effa" y="220.676" stroke="#000" stroke-width=".8" id="line2d_9"/><text x="50.6" y="224.475" font-family="DejaVu Sans" font-size="10" font-weight="400" text-anchor="end" id="text_10">3.00</text></g><g id="ytick_4"><use x="57.6" xlink:href="#mf6f3e0effa" y="184.847" stroke="#000" stroke-width=".8" id="line2d_10"/><text x="50.6" y="188.646" font-family="DejaVu Sans" font-size="10" font-weight="400" text-anchor="end" id="text_11">3.25</text></g><g id="ytick_5"><use x="57.6" xlink:href="#mf6f3e0effa" y="149.017" stroke="#000" stroke-width=".8" id="line2d_11"/><text x="50.6" y="152.817" font-family="DejaVu Sans" font-size="10" font-weight="400" text-anchor="end" id="text_12">3.50</text></g><g id="ytick_6"><use x="57.6" xlink:href="#mf6f3e0effa" y="113.188" stroke="#000" stroke-width=".8" id="line2d_12"/><text x="50.6" y="116.987" font-family="DejaVu Sans" font-size="10" font-weight="400" text-anchor="end" id="text_13">3.75</text></g><g id="ytick_7"><use x="57.6" xlink:href="#mf6f3e0effa" y="77.359" stroke="#000" stroke-width=".8" id="line2d_13"/><text x="50.6" y="81.158" font-family="DejaVu Sans" font-size="10" font-weight="400" text-anchor="end" id="text_14">4.00</text></g><g id="ytick_8"><use x="57.6" xlink:href="#mf6f3e0effa" y="41.529" stroke="#000" stroke-width=".8" id="line2d_14"/><text x="50.6" y="45.329" font-family="DejaVu Sans" font-size="10" font-weight="400" text-anchor="end" id="text_15">4.25</text></g><text transform="rotate(-90 22.255 174.528)" x="22.255" y="174.528" font-family="DejaVu Sans" font-size="10" font-weight="400" text-anchor="middle" id="text_16">Average Bits Consumed Per Call</text></g><path clip-path="url(#p64175ce7d8)" d="M73.833 70.766l3.28 20.065 3.278-15.765 3.28-21.498 3.28 72.519 3.278-40.416 3.28 15.765 3.28-16.052 3.278 36.69 3.28-10.32 3.28-7.738 3.278 16.625 3.28 5.159 3.28 14.045 3.278-11.465 3.28 34.11 3.28-65.927 3.278 8.313 3.28-9.173 3.28.86 3.279-17.771 3.279 100.895 3.28-52.454 3.279.287 3.279-63.347 3.28 43.856 3.279 66.499 3.279-4.013 3.28-39.269 3.279 10.319 3.279 19.778 3.28 27.517 3.279-31.53 3.279-18.345 3.28 37.263 3.279-15.192 3.279-31.53 3.28 17.772 3.279-5.446 3.279 31.816 3.28-25.51 3.279 26.943 3.279 1.433 3.28-8.312 3.279-25.51 3.279 40.702 3.28-2.867 3.279-.286 3.279 20.637 3.28-26.943 3.279 49.014 3.279-16.625 3.28-33.25 3.279 12.326 3.279 30.957 3.28-9.746 3.279-8.886 3.279-2.58 3.28-15.478 3.279 60.194 3.28 1.146 3.278-46.721 3.28 24.937 3.28 10.606 3.278 26.083 3.28-26.943 3.28 2.006 3.278-10.892 3.28 24.65 3.28 18.059 3.278-42.136 3.28-12.038 3.28 53.027 3.278-32.676 3.28-18.345 3.28 47.581 3.278-19.49 3.28-19.779 3.28 4.3 3.278-18.631 3.28 45.861 3.28-2.58 3.279-2.866 3.279-1.433 3.28 24.364 3.279 12.612 3.279-43.282 3.28 16.625 3.279-.573 3.279.286 3.28 9.46 3.279-3.44 3.279-6.02 3.28-5.446 3.279 20.351 3.279-15.765 3.28 3.727 3.279 17.484 3.279 6.593 3.28 14.905" fill="none" stroke="#1f77b4" stroke-linecap="square" stroke-width="1.5" id="line2d_15"/><path d="M57.6 307.584V41.472" fill="none" stroke="#000" stroke-linecap="square" stroke-width=".8" id="patch_3"/><path d="M414.72 307.584V41.472" fill="none" stroke="#000" stroke-linecap="square" stroke-width=".8" id="patch_4"/><path d="M57.6 307.584h357.12" fill="none" stroke="#000" stroke-linecap="square" stroke-width=".8" id="patch_5"/><path d="M57.6 41.472h357.12" fill="none" stroke="#000" stroke-linecap="square" stroke-width=".8" id="patch_6"/><text x="236.16" y="35.472" font-family="DejaVu Sans" font-size="12" font-weight="400" text-anchor="middle" id="text_17">Avg. Bits Consumed by 0.5*x/(1+0.5*x) Algorithm</text><g id="legend_1"><path d="M296.162 64.15H407.72q2 0 2-2V48.472q0-2-2-2H296.162q-2 0-2 2V62.15q0 2 2 2z" fill="#fff" opacity=".8" stroke="#ccc" id="patch_7"/><path d="M298.162 54.57h20" fill="none" stroke="#1f77b4" stroke-linecap="square" stroke-width="1.5" id="line2d_16"/><text x="326.162" y="58.07" font-family="DejaVu Sans" font-size="10" font-weight="400" id="text_18">0.5*x/(1+0.5*x)</text></g></g></g><defs><clipPath id="p64175ce7d8"><path d="M57.6 41.472h357.12v266.112H57.6z"/></clipPath></defs></svg>
